assets/images/pato.svg

<svg width="53" height="47" viewBox="0 0 53 47" fill="none" xmlns="http://www.w3.org/2000/svg">
<path d="M24.0644 42.5745C23.9417 42.9625 23.8658 43.3678 23.7271 43.7572C23.6044 44.0985 23.2351 44.2438 22.9444 44.4172C23.0151 44.4998 23.0831 44.5852 23.1617 44.6812C23.3711 44.6585 23.5737 44.6105 23.7817 44.5572C23.9844 43.8265 24.1724 43.0719 24.6404 42.4612C24.4457 42.5025 24.2524 42.5332 24.0644 42.5745ZM11.5497 23.1358C10.9991 24.1092 9.77373 24.3145 9.10573 25.1665C9.46173 25.1159 9.81907 25.0372 10.1471 24.8812C10.8204 24.5959 11.5538 24.3345 12.0991 23.8412C11.9884 23.5572 11.7351 23.3638 11.5497 23.1358V23.1358ZM13.9724 20.2558C13.2124 20.7012 12.5991 21.3759 12.1831 22.1439C12.0631 22.6705 12.4311 23.1372 12.5991 23.6132C13.0898 23.4359 13.627 23.2998 14.1404 23.4692C15.059 23.7652 15.8417 24.6212 15.8777 25.6119C15.9097 26.1639 15.6004 26.6505 15.4617 27.1732C15.0711 28.0918 14.5911 28.9705 14.1631 29.8718C13.9498 30.2438 13.9471 30.6945 13.7684 31.0825C13.7284 31.2172 13.6938 31.3559 13.6631 31.4999C13.5964 32.5159 13.4177 33.5892 13.8164 34.5625C14.0857 35.3359 14.4724 36.0665 14.9084 36.7599C15.4697 37.5052 16.2764 38.0012 17.0457 38.5052C17.8297 38.9292 18.6457 39.2959 19.4671 39.6492C19.9017 39.7812 20.3564 39.8492 20.7884 40.0025C21.4644 40.2145 22.1764 40.2332 22.8737 40.3519C23.279 40.3892 23.7004 40.3838 24.0951 40.5225C24.6084 40.6852 25.1938 40.6865 25.6324 41.0398C25.8191 41.3052 25.6551 41.6612 25.7644 41.9505C25.9284 42.1492 26.1137 42.3252 26.279 42.5265C26.191 42.7545 25.9831 42.8505 25.7617 42.8932C25.7457 43.4652 25.6164 44.0265 25.5097 44.5892C25.4737 44.8332 25.287 45.0465 25.0537 45.1332C24.527 45.3558 23.9551 45.4439 23.3911 45.5105C23.2471 45.5359 23.111 45.5692 22.9817 45.6052C22.8497 45.6279 22.7297 45.6625 22.6111 45.6972C23.2684 45.6639 23.9284 45.6759 24.5884 45.6425C25.0684 45.6412 25.5431 45.4572 25.8417 45.0705C26.0644 44.6425 26.1057 44.1519 26.2497 43.6999C26.4004 43.2359 26.3431 42.6638 26.7697 42.3398C26.8844 42.0852 27.0498 41.8652 27.2298 41.6558C26.8231 41.6398 26.411 41.6652 26.0177 41.5639C25.8084 41.5212 25.8537 41.2932 25.8497 41.1479C26.5177 41.0679 27.1978 41.1745 27.8658 41.0652C28.2911 40.9839 28.7151 40.8918 29.1257 40.7398C29.5204 40.5972 29.9537 40.6385 30.3537 40.5132C30.975 40.3252 31.6217 40.2559 32.2364 40.0492C33.2244 39.8145 34.1684 39.4359 35.1244 39.0959C35.7657 38.8159 36.379 38.4732 37.0204 38.1905C38.0804 37.6918 38.8977 36.8319 39.8817 36.2185C39.4924 36.3132 39.1137 36.4252 38.7391 36.5532C38.5204 36.5958 38.2777 36.7092 38.0764 36.5812C38.023 36.3879 38.2457 36.3905 38.3751 36.3519C39.0564 36.1772 39.7058 35.8118 40.4298 35.8425C40.8391 35.6678 41.231 35.4452 41.6537 35.2999C40.8777 35.3225 40.1191 35.5065 39.3924 35.7745C38.7657 35.8758 38.2324 36.2279 37.6298 36.3932C37.0551 36.5879 36.4844 36.8625 35.8671 36.8412C35.5884 36.8438 35.5817 36.5639 35.607 36.3679C36.9897 36.3705 38.1377 35.5278 39.3924 35.0732C40.1351 34.7025 40.9497 34.5585 41.751 34.3732C41.4444 34.3358 41.1404 34.3065 40.8351 34.3479C40.0498 34.4239 39.2257 34.2412 38.4751 34.5585C38.3297 34.5812 38.1671 34.7158 38.0391 34.6198C38.0444 34.4292 38.2524 34.4265 38.387 34.3732C39.0164 34.1852 39.6684 34.0892 40.3137 33.9652C39.7271 33.7132 38.9964 33.9479 38.4977 33.5119C36.9524 34.1265 35.6417 35.3692 33.9311 35.5439C33.8484 35.6532 33.7751 35.7745 33.6804 35.8758C33.1671 36.0372 32.6471 35.8199 32.1417 35.7599C31.9257 35.9065 31.7017 36.0332 31.4724 36.1465C31.4297 36.2999 31.4671 36.5172 31.2938 36.6012C30.9471 36.8465 30.5404 36.6438 30.1777 36.5718C29.5111 36.5025 28.8444 36.5972 28.1897 36.6985C27.4884 36.5705 26.7897 36.4185 26.0831 36.3398C26.0084 36.4505 25.9804 36.6612 25.8018 36.6479C25.4751 36.5545 25.2097 36.2892 25.079 35.9892C24.9777 35.8252 25.1431 35.6612 25.2911 35.6305C25.7284 35.6132 26.1404 35.8119 26.5764 35.8505C26.5964 35.6852 26.6177 35.5278 26.651 35.3745C27.1537 35.2932 27.4231 35.8452 27.8911 35.9012C28.2538 35.9599 28.6177 35.8705 28.9817 35.8439C28.5484 35.4825 28.2084 35.0238 27.9311 34.5372C27.9391 34.3118 28.1537 34.3225 28.279 34.4452C28.7337 34.8572 29.2044 35.2679 29.7484 35.5612C30.171 35.8092 30.671 35.6145 31.115 35.5238C31.195 35.4825 31.3977 35.4705 31.3537 35.3398C30.9484 35.0118 30.419 34.8999 30.015 34.5785C29.8644 34.4945 29.8257 34.2438 29.9817 34.1585C30.2177 33.9705 30.471 34.2292 30.687 34.3319C31.1524 34.5505 31.6511 34.7038 32.0964 34.9732C32.9498 35.1385 33.8764 35.2652 34.7044 34.9198C35.1857 34.7358 35.6924 34.5852 36.1217 34.2878C36.7511 33.7678 37.355 33.2198 38.023 32.7558C37.2417 32.5892 36.4391 32.5105 35.6857 32.2372C34.6751 31.9998 33.7244 31.5732 32.751 31.2238C30.8977 30.4398 29.0138 29.6972 27.0578 29.2159C26.4298 29.1665 25.8244 28.9319 25.1911 28.9599C23.8751 28.9439 22.5591 28.9385 21.2551 29.1398C20.4897 29.1798 19.8151 29.5719 19.0777 29.7305C18.8644 29.7639 18.6071 29.8425 18.4337 29.6799C18.1737 29.4172 17.8671 29.1239 17.8697 28.7279C17.8231 27.8825 18.0217 27.0439 18.2884 26.2479C18.6231 25.2585 18.4084 24.2158 18.351 23.2078C18.283 22.8598 18.2484 22.5118 18.1578 22.1705C17.8791 21.5905 17.6404 20.9225 17.0671 20.5612C16.6297 20.2639 16.1831 19.9052 15.6324 19.9038C15.0631 19.8758 14.4431 19.8958 13.9724 20.2558V20.2558ZM13.751 19.3612C14.779 18.8972 16.0618 18.8385 17.0578 19.4319C17.6711 19.7865 18.2817 20.2185 18.6204 20.8652C19.131 21.6665 19.2257 22.6345 19.343 23.5572C19.455 24.5265 19.5591 25.5518 19.2057 26.4892C19.0191 27.0438 18.9177 27.6265 18.8457 28.2038C18.8537 28.3812 18.7617 28.6199 18.915 28.7625C19.575 28.6865 20.1377 28.2545 20.8097 28.2319C21.7844 28.1745 22.7417 27.9412 23.7217 27.9705C24.6977 27.9652 25.6897 27.9225 26.6417 28.1825C29.3951 28.6359 31.9097 29.9092 34.5031 30.8718C35.6444 31.3292 36.8564 31.5612 38.0564 31.8012C38.4764 31.9212 38.9631 32.0025 39.2351 32.3825C39.3618 32.5265 39.3177 32.7372 39.3377 32.9198C40.0337 32.8785 40.6951 33.1385 41.3591 33.3065C42.0191 33.4732 42.623 33.8745 43.323 33.8692C43.7764 33.9052 44.227 33.9745 44.6844 34.0078C45.0084 34.0572 45.1204 34.4612 45.0177 34.7425C44.8017 34.9985 44.4564 35.0625 44.1591 35.1705C43.1791 35.4572 42.3204 36.0252 41.4004 36.4465C40.8831 36.7079 40.3551 36.9679 39.9018 37.3279C39.2938 38.0732 38.415 38.4985 37.623 39.0052C36.9324 39.3638 36.2471 39.7318 35.5111 39.9905C34.6897 40.2825 33.8898 40.6505 33.0351 40.8319C32.3591 41.0292 31.6884 41.2585 30.9951 41.3852C30.4217 41.4639 29.9004 41.7492 29.3244 41.8119C28.6764 41.8492 27.9884 42.1145 27.6137 42.6705C27.4657 42.8772 27.2457 43.0625 27.2177 43.3358C27.059 44.0598 26.9417 44.8145 26.6057 45.4865C26.2924 45.9772 25.7617 46.3598 25.1697 46.4065C24.1391 46.5305 23.0938 46.5319 22.0631 46.4212C21.7058 46.3292 21.2751 46.3185 21.0111 46.0385C20.8551 45.7039 21.0858 45.3279 21.4271 45.2479C20.8551 45.2839 20.251 45.2265 19.743 44.9465C19.3684 44.7092 19.5244 44.1412 19.8857 43.9785C20.4657 43.7105 21.1231 43.5638 21.7644 43.6745C22.2004 43.7425 22.7924 43.7399 23.0298 43.2932C23.1538 42.7172 23.3844 42.1732 23.6111 41.6319C22.7297 41.3959 21.8057 41.4892 20.9231 41.2732C20.1657 41.0745 19.4017 40.8852 18.6737 40.5945C18.0364 40.3852 17.483 39.9958 16.8737 39.7252C15.895 39.2065 14.9284 38.5919 14.2391 37.7105C13.5684 36.9532 13.2204 35.9798 12.879 35.0412C12.7257 34.5332 12.4844 34.0332 12.4964 33.4932C12.4631 32.8679 12.5991 32.2545 12.6831 31.6412C12.7471 30.9532 13.0431 30.3212 13.2111 29.6612C13.6271 28.7079 14.1897 27.8345 14.6231 26.8918C14.7511 26.4638 15.0697 26.0785 14.9751 25.6038C15.0497 24.8292 14.3217 24.1265 13.5551 24.2092C13.1231 24.2825 12.7204 24.4692 12.3697 24.7252C11.1817 25.4358 9.87905 26.0092 8.48972 26.1665C8.15238 26.1599 7.9017 25.7705 8.0377 25.4625C8.39637 24.5759 9.1537 23.9265 9.97103 23.4732C10.843 22.9665 11.1444 21.9452 11.7351 21.1878C12.2311 20.4158 12.9537 19.8119 13.751 19.3612" fill="#0A0A0B"/>
<path d="M13.5791 20.7505C13.8831 20.5719 14.5364 20.5918 14.5537 21.0558C14.5564 21.4638 14.1204 21.7052 13.7737 21.7878C13.3524 21.6652 13.1177 20.9772 13.5791 20.7505Z" fill="#0A0A0B"/>
<path d="M15.7658 30.4025C15.9298 30.3451 15.987 30.3998 15.9377 30.5758C15.7657 30.6265 15.7084 30.5691 15.7658 30.4025Z" fill="#0A0A0B"/>
<path d="M24.0737 30.7651C23.851 30.7598 23.8204 30.3958 24.039 30.3705C24.8764 30.2585 25.711 30.4825 26.5364 30.6238C26.6004 30.4585 26.783 30.3691 26.9457 30.4705C26.9297 30.6025 26.9204 30.7398 26.9204 30.8838C27.203 31.1758 27.6217 31.1985 27.9844 31.3358C28.5324 31.5105 29.0791 31.6878 29.6351 31.8318C29.9404 31.9118 30.2457 32.0465 30.4337 32.3158C31.8244 32.4825 33.235 32.4091 34.631 32.3105C34.9297 32.2905 35.2337 32.1958 35.5364 32.2611C35.7897 32.3545 35.923 32.6985 35.6617 32.8718C34.6337 33.3985 33.439 33.1998 32.331 33.2198C32.7644 33.1265 33.211 33.2065 33.651 33.1505C33.5937 33.0478 33.371 33.1145 33.2737 33.0971C32.6537 33.0558 32.0284 33.2211 31.423 33.0465C30.8964 32.8985 30.3684 32.7505 29.8497 32.5798C29.1097 32.1771 28.2257 32.1345 27.5164 31.6638C27.2564 31.4985 27.0337 31.2625 26.7257 31.1945C25.8564 30.9785 24.9563 30.9051 24.0737 30.7651" fill="#0A0A0B"/>
<path d="M28.443 31.0212C28.619 30.7492 28.9323 30.6919 29.2377 30.7519C29.4137 30.7425 29.4777 31.0292 29.343 31.1305C29.0577 31.3118 28.6683 31.2718 28.443 31.0212Z" fill="#0A0A0B"/>
<path d="M29.443 31.2412C29.663 31.1172 29.9257 31.2518 30.1644 31.2705C31.0817 31.4465 32.0044 31.1732 32.923 31.2852C33.0177 31.4692 32.8457 31.6705 32.6537 31.6678C31.855 31.7212 31.063 31.9292 30.259 31.8198C29.9444 31.7612 29.5031 31.7998 29.3751 31.4398C29.3924 31.3905 29.4284 31.2892 29.443 31.2412" fill="#0A0A0B"/>
<path d="M15.3751 32.4932C15.5098 32.3318 15.7537 32.5812 15.5951 32.7225C15.4551 32.8625 15.2324 32.6252 15.3751 32.4932Z" fill="#0A0A0B"/>
<path d="M26.0124 32.5492C26.2644 32.4118 26.5297 32.5918 26.7431 32.7292C26.8857 32.8092 26.9284 32.9292 26.8671 33.0972C26.6484 33.1692 26.4324 33.0398 26.2457 32.9518C26.1111 32.8705 25.9004 32.7225 26.0124 32.5492Z" fill="#0A0A0B"/>
<path d="M24.187 33.5398C24.391 33.4825 24.579 33.6158 24.7177 33.7611C24.8444 34.0038 24.5271 34.0971 24.3471 34.0745C24.0977 34.0478 23.855 33.6331 24.187 33.5398Z" fill="#0A0A0B"/>
<path d="M32.031 33.7371C32.271 33.6385 32.4937 33.8171 32.731 33.8531C33.2164 33.9171 33.7097 33.8438 34.2017 33.8825C34.4084 33.8718 34.5604 34.0465 34.6524 34.2211C34.6337 34.4745 34.3297 34.6118 34.1057 34.6265C33.4577 34.6345 32.743 34.6798 32.207 34.2558C32.0203 34.1665 31.891 33.9091 32.031 33.7371" fill="#0A0A0B"/>
<path d="M21.3563 34.2598C21.5243 34.1985 21.583 34.2545 21.539 34.4265C21.363 34.4798 21.303 34.4265 21.3563 34.2598Z" fill="#0A0A0B"/>
<path d="M15.871 34.3425C16.095 34.1851 16.3164 34.4265 16.371 34.6371C16.531 34.8785 16.1938 35.2171 15.9551 35.0451C15.7151 34.8998 15.771 34.5545 15.871 34.3425Z" fill="#0A0A0B"/>
<path d="M21.6938 34.7865C21.8711 34.7745 22.1297 35.0678 21.8711 35.1705C21.6191 35.2825 21.3484 34.8425 21.6938 34.7865Z" fill="#0A0A0B"/>
<path d="M22.4764 35.3571C22.7831 35.2225 23.0484 35.4931 23.3471 35.5425C23.4431 35.4438 23.5698 35.2451 23.7338 35.3825C23.9618 35.5705 24.1818 35.8025 24.2858 36.0878C24.3071 36.5171 23.7098 36.4345 23.5884 36.1278C23.4484 35.7438 23.0097 35.8865 22.7177 35.7411C22.5657 35.6825 22.3764 35.5371 22.4764 35.3571" fill="#0A0A0B"/>
<path d="M36.1004 35.5091C36.2258 35.4531 36.3911 35.4518 36.4685 35.5958C36.5178 35.8451 36.2444 35.9771 36.0671 36.0851C35.8951 36.1918 35.5711 36.2451 35.5071 35.9958C35.4964 35.6825 35.8724 35.6065 36.1004 35.5091Z" fill="#0A0A0B"/>
<path d="M17.411 35.9825C17.847 36.0785 18.3631 36.4412 18.2684 36.9452C17.7524 37.0892 17.2404 36.4705 17.411 35.9825Z" fill="#0A0A0B"/>
<path d="M32.971 36.2959C33.2643 36.2052 33.5871 36.2252 33.8911 36.2745C34.0297 36.2918 34.123 36.4412 34.0564 36.5772C33.791 36.8692 33.3283 36.9385 32.9737 36.7999C32.7483 36.7119 32.7737 36.3919 32.971 36.2959" fill="#0A0A0B"/>
<path d="M29.5298 37.1225C30.0418 37.0278 30.5658 37.0545 31.0858 37.0932C31.3071 37.1052 31.5685 37.2131 31.6578 37.4398C31.5405 37.6825 31.2578 37.8465 30.9858 37.8051C30.3978 37.7385 29.8138 37.6652 29.2231 37.6465C28.7698 37.6465 28.3244 37.7758 27.8738 37.7585C27.7364 37.7518 27.5631 37.5785 27.6725 37.4492C27.7805 37.2625 28.0178 37.2945 28.2044 37.2585C28.6404 37.1798 29.0885 37.1758 29.5298 37.1225" fill="#0A0A0B"/>
<path d="M21.2097 38.1358C21.4644 38.0612 21.6937 38.1745 21.8537 38.3772C22.0977 38.6772 22.4764 38.7945 22.7817 39.0172C22.927 39.1492 22.7791 39.3945 22.5884 39.3465C22.2257 39.3319 21.8924 39.1532 21.6391 38.9065C21.4271 38.6959 21.1937 38.4545 21.2097 38.1358Z" fill="#0A0A0B"/>
<path d="M23.511 38.5652C23.8923 38.4718 24.2336 38.7212 24.571 38.8625C24.7643 38.9398 24.6883 39.1652 24.7057 39.3278C24.3043 39.4265 23.8963 39.2612 23.5736 39.0372C23.419 38.9185 23.5057 38.7118 23.511 38.5652Z" fill="#0A0A0B"/>
<path d="M26.0551 38.6265C26.2791 38.5132 26.7111 38.6905 26.7031 38.9665C26.5164 39.2412 25.7751 38.9825 26.0551 38.6265Z" fill="#0A0A0B"/>
<path d="M29.4551 38.7012C29.8565 38.6278 29.4404 39.1798 29.3538 38.8225C29.3778 38.7892 29.4311 38.7292 29.4551 38.7012Z" fill="#0A0A0B"/>
</svg>

<svg width="53" height="47" fill="none" xmlns="http://www.w3.org/2000/svg"><path d="M11.5 22.5c0 .4-2.5 2.333-3.5 3 0 .167.7 0 1.5 0s3-1 4-1.5c3 0 1.5 2.5 1.5 3s-2.5 4.5-1.5 8.5c.8 3.2 7.333 5.333 10.5 6L23 44l-2 .5 1 1.5 4-.5c.333-1.5 1.1-4.4 1.5-4 .5.5 11-3 12-4 .8-.8 3.667-2.333 5-3L39 33c-1.667-.5-5.4-1.5-9-3.5-4.5-2.5-9.5-.5-11 0s-.5-1 0-4.5-1-4.5-3-5.5-4.5 2.5-4.5 3Z" fill="#fff"/><path d="M24.064 42.575c-.122.387-.198.793-.337 1.182-.123.342-.492.487-.783.66.071.083.14.168.218.264.21-.023.412-.07.62-.124.202-.73.39-1.485.858-2.096-.194.041-.388.072-.576.114ZM11.55 23.134c-.55.974-1.776 1.18-2.444 2.031.356-.05.713-.129 1.041-.285.673-.285 1.407-.547 1.952-1.04-.11-.284-.364-.477-.55-.705Zm2.422-2.88c-.76.446-1.373 1.12-1.789 1.889-.12.527.248.993.416 1.47.49-.178 1.028-.314 1.541-.145.919.296 1.702 1.152 1.738 2.143.032.552-.278 1.039-.416 1.561-.39.919-.87 1.798-1.299 2.699-.213.372-.216.823-.395 1.21-.04.135-.074.274-.105.418-.067 1.016-.245 2.09.153 3.063.27.773.656 1.503 1.092 2.197.562.745 1.368 1.241 2.138 1.745.784.424 1.6.79 2.421 1.144.435.132.89.2 1.321.353.676.212 1.388.231 2.086.35.405.037.826.032 1.221.17.513.163 1.099.165 1.537.518.187.265.023.621.132.91.164.2.35.375.515.576-.088.228-.296.324-.517.367-.016.572-.146 1.133-.252 1.696a.713.713 0 0 1-.456.544c-.527.223-1.099.31-1.663.377-.144.026-.28.06-.41.095a3.269 3.269 0 0 0-.37.092c.657-.033 1.317-.021 1.977-.055.48 0 .955-.185 1.254-.572.222-.428.264-.918.408-1.37.15-.464.093-1.036.52-1.36.114-.255.28-.475.46-.684-.407-.016-.819.01-1.212-.092-.21-.043-.164-.27-.168-.416.668-.08 1.348.026 2.016-.083.425-.081.85-.173 1.26-.325.394-.143.828-.102 1.228-.227.621-.188 1.268-.257 1.882-.464.988-.234 1.932-.613 2.888-.953.642-.28 1.255-.623 1.896-.905 1.06-.5 1.878-1.36 2.862-1.973a13.1 13.1 0 0 0-1.143.335c-.219.043-.461.156-.663.028-.053-.193.17-.19.3-.23.68-.174 1.33-.54 2.054-.508.41-.175.801-.398 1.224-.543-.776.023-1.535.207-2.262.475-.626.1-1.16.453-1.762.618-.575.195-1.146.47-1.763.448-.279.003-.285-.277-.26-.473 1.383.002 2.53-.84 3.785-1.295.743-.37 1.558-.514 2.359-.7-.307-.037-.61-.066-.916-.025-.785.076-1.61-.107-2.36.21-.145.023-.308.158-.436.062.005-.19.213-.194.348-.247.63-.188 1.281-.284 1.927-.408-.587-.252-1.318-.017-1.816-.453-1.546.614-2.856 1.857-4.567 2.032-.083.11-.156.23-.25.332-.514.161-1.034-.056-1.54-.116-.215.147-.44.273-.669.387-.042.153-.005.37-.178.454-.347.245-.754.043-1.116-.03-.667-.069-1.334.026-1.988.128-.702-.128-1.4-.28-2.107-.36-.075.111-.103.322-.281.309-.327-.094-.592-.359-.723-.659-.101-.164.064-.328.212-.358.437-.018.85.18 1.285.22.02-.166.042-.323.075-.477.503-.08.772.471 1.24.527.363.059.727-.03 1.09-.057-.433-.361-.773-.82-1.05-1.307.008-.225.223-.215.348-.092.455.412.925.823 1.47 1.116.422.248.922.053 1.366-.037.08-.041.283-.053.239-.184-.406-.328-.935-.44-1.339-.762-.15-.084-.19-.334-.033-.42.236-.188.489.071.705.174.465.218.964.372 1.41.641.853.166 1.78.292 2.607-.053.482-.184.988-.335 1.418-.632.63-.52 1.233-1.068 1.901-1.532-.781-.167-1.584-.245-2.337-.519-1.01-.237-1.962-.664-2.935-1.013-1.853-.784-3.737-1.527-5.693-2.008-.628-.05-1.234-.284-1.867-.256-1.316-.016-2.632-.021-3.936.18-.765.04-1.44.432-2.177.59-.214.034-.47.113-.644-.05-.26-.263-.567-.556-.564-.952-.047-.846.152-1.684.418-2.48.335-.99.12-2.032.063-3.04-.068-.348-.103-.696-.193-1.037-.279-.58-.518-1.248-1.09-1.61-.438-.297-.885-.656-1.436-.657-.569-.028-1.189-.008-1.66.352Zm-.221-.894c1.028-.464 2.31-.523 3.307.07.613.355 1.224.787 1.562 1.434.511.802.606 1.77.723 2.692.112.97.216 1.995-.137 2.932-.187.555-.288 1.137-.36 1.715.008.177-.084.416.069.558.66-.076 1.223-.508 1.895-.53.974-.058 1.932-.29 2.912-.261.976-.006 1.968-.049 2.92.212 2.753.453 5.268 1.726 7.861 2.689 1.141.457 2.353.69 3.553.93.42.12.907.2 1.18.58.126.145.082.355.102.538.696-.041 1.357.218 2.021.386.66.167 1.264.569 1.964.563.453.036.904.105 1.361.139.324.05.436.453.334.734-.216.257-.562.32-.859.428-.98.287-1.839.855-2.759 1.276-.517.262-1.045.522-1.498.882-.608.745-1.487 1.17-2.279 1.677-.69.359-1.376.727-2.112.985-.821.292-1.621.66-2.476.842-.676.197-1.347.426-2.04.553-.573.079-1.095.364-1.67.427-.649.037-1.337.303-1.711.858-.148.207-.368.392-.396.666-.159.724-.276 1.479-.612 2.15-.314.491-.844.874-1.436.92-1.03.125-2.076.126-3.107.015-.357-.092-.788-.102-1.052-.383-.156-.334.075-.71.416-.79-.572.036-1.176-.021-1.684-.301-.375-.238-.219-.806.143-.969.58-.267 1.237-.414 1.878-.303.436.068 1.028.065 1.266-.382.124-.576.354-1.12.581-1.661-.881-.236-1.805-.143-2.688-.359-.757-.199-1.521-.388-2.25-.679-.637-.209-1.19-.598-1.8-.869-.978-.519-1.945-1.133-2.634-2.014-.67-.758-1.019-1.731-1.36-2.67-.153-.508-.395-1.008-.383-1.548-.033-.625.103-1.239.187-1.852.064-.688.36-1.32.528-1.98.416-.953.979-1.827 1.412-2.77.128-.427.447-.813.352-1.287.075-.775-.653-1.477-1.42-1.395-.432.073-.835.26-1.185.516-1.188.71-2.49 1.284-3.88 1.441-.338-.006-.588-.396-.452-.704.358-.886 1.116-1.535 1.933-1.989.872-.506 1.173-1.528 1.764-2.285.496-.772 1.219-1.376 2.016-1.827" fill="#0A0A0B"/><path d="M13.58 20.75c.303-.178.956-.158.974.306.002.408-.434.65-.78.732-.422-.123-.656-.81-.195-1.038ZM15.766 30.402c.164-.057.221-.002.172.174-.172.05-.23-.007-.172-.174ZM24.074 30.765c-.223-.005-.254-.37-.035-.395.837-.111 1.672.113 2.497.254.064-.165.247-.255.41-.153-.016.131-.026.269-.026.413.283.292.702.314 1.064.452.548.175 1.095.352 1.651.496.305.08.61.215.799.484 1.39.166 2.801.093 4.197-.006.299-.02.603-.114.905-.049.254.093.387.438.126.61-1.028.527-2.223.329-3.331.349.433-.093.88-.014 1.32-.07-.057-.102-.28-.035-.377-.053-.62-.041-1.246.124-1.851-.05-.527-.148-1.055-.296-1.573-.467-.74-.403-1.624-.445-2.334-.916-.26-.166-.482-.402-.79-.47-.87-.215-1.77-.289-2.652-.429" fill="#0A0A0B"/><path d="M28.443 31.021c.176-.272.49-.33.795-.27.176-.009.24.278.105.38a.71.71 0 0 1-.9-.11ZM29.443 31.241c.22-.124.483.01.721.03.918.175 1.84-.098 2.759.014.095.184-.077.386-.27.383-.798.053-1.59.261-2.394.152-.315-.059-.756-.02-.884-.38.017-.05.053-.15.068-.199M15.375 32.493c.135-.161.379.088.22.23-.14.14-.363-.098-.22-.23ZM26.012 32.55c.252-.138.518.042.731.18.143.08.185.2.124.367-.219.072-.435-.057-.621-.145-.135-.081-.346-.23-.234-.403ZM24.187 33.54c.204-.057.392.076.53.221.127.243-.19.336-.37.313-.25-.026-.492-.44-.16-.534ZM32.031 33.737c.24-.099.463.08.7.116.485.064.979-.01 1.47.03.207-.011.36.163.451.338-.018.254-.322.39-.546.406-.648.008-1.363.053-1.9-.371-.186-.09-.315-.347-.175-.519M21.356 34.26c.168-.061.227-.005.183.166-.176.054-.236 0-.183-.166ZM15.871 34.343c.224-.158.445.083.5.294.16.242-.177.58-.416.408-.24-.145-.184-.49-.084-.703ZM21.694 34.786c.177-.011.436.282.177.384-.252.112-.522-.328-.177-.384ZM22.476 35.357c.307-.135.572.136.871.185.096-.098.223-.297.387-.16.228.189.448.42.552.706.021.43-.576.346-.698.04-.14-.384-.578-.242-.87-.387-.152-.059-.342-.204-.242-.384M36.1 35.51c.126-.057.291-.058.368.086.05.25-.224.381-.4.49-.173.106-.497.16-.56-.09-.012-.314.364-.39.592-.487ZM17.411 35.983c.436.096.952.458.857.962-.516.144-1.028-.474-.857-.962ZM32.971 36.296c.293-.09.616-.07.92-.021a.212.212 0 0 1 .165.302c-.265.292-.728.361-1.082.223-.226-.088-.2-.408-.003-.504M29.53 37.123c.512-.095 1.036-.069 1.556-.03.221.012.483.12.572.347a.663.663 0 0 1-.672.365c-.588-.066-1.172-.14-1.763-.158-.453 0-.899.129-1.35.111-.137-.006-.31-.18-.2-.309.108-.186.345-.154.531-.19.436-.08.884-.083 1.326-.136M21.21 38.136c.254-.075.484.038.644.241.244.3.622.417.928.64.145.132-.003.377-.194.33-.362-.015-.696-.194-.949-.44-.212-.211-.445-.452-.43-.771ZM23.51 38.565c.382-.093.724.156 1.06.297.194.078.118.303.136.466-.402.098-.81-.067-1.132-.29-.155-.12-.068-.326-.063-.473ZM26.055 38.627c.224-.114.656.063.648.34-.187.274-.928.016-.648-.34ZM29.455 38.701c.402-.073-.015.479-.101.121.024-.033.077-.093.101-.12Z" fill="#0A0A0B"/></svg>
